static/img/kroki/2781eef3e455d5e4af309b6896fa7dbe.svg

<?xml version="1.0" encoding="us-ascii" standalone="no"?><svg xmlns="http://www.w3.org/2000/svg" xmlns:xlink="http://www.w3.org/1999/xlink" contentStyleType="text/css" height="1030px" preserveAspectRatio="none" style="width:490px;height:1030px;" version="1.1" viewBox="0 0 490 1030" width="490px" zoomAndPan="magnify"><defs/><g><!--class aws_resource--><g id="elem_aws_resource"><rect codeLine="23" fill="#3D176E" height="74.0859" id="aws_resource" rx="2.5" ry="2.5" style="stroke:#000D19;stroke-width:0.5;" width="155" x="167.5" y="438.76"/><ellipse cx="182.5" cy="458.6545" fill="#ADD1B2" rx="11" ry="11" style="stroke:#181818;stroke-width:1.0;"/><path d="M185.4688,464.2952 Q184.8906,464.592 184.25,464.7327 Q183.6094,464.8889 182.9063,464.8889 Q180.4063,464.8889 179.0781,463.2483 Q177.7656,461.592 177.7656,458.467 Q177.7656,455.342 179.0781,453.6858 Q180.4063,452.0295 182.9063,452.0295 Q183.6094,452.0295 184.25,452.1858 Q184.9063,452.342 185.4688,452.6389 L185.4688,455.3577 Q184.8438,454.7795 184.25,454.5139 Q183.6563,454.2327 183.0313,454.2327 Q181.6875,454.2327 181,455.3108 Q180.3125,456.3733 180.3125,458.467 Q180.3125,460.5608 181,461.6389 Q181.6875,462.7014 183.0313,462.7014 Q183.6563,462.7014 184.25,462.4358 Q184.8438,462.1545 185.4688,461.5764 L185.4688,464.2952 Z " fill="#000000"/><text fill="#D9B8FF" font-family="Helvetica" font-size="17" lengthAdjust="spacing" textLength="113" x="201.5" y="464.5398">aws_resource</text><line style="stroke:#000D19;stroke-width:0.5;" x1="168.5" x2="321.5" y1="478.5491" y2="478.5491"/><text fill="#D9B8FF" font-family="sans-serif" font-size="14" font-weight="bold" lengthAdjust="spacing" textLength="26" x="178.5" y="500.5442">arn</text><text fill="#D9B8FF" font-family="sans-serif" font-size="14" lengthAdjust="spacing" textLength="48" x="204.5" y="500.5442">: string</text></g><!--class aws_sagemaker_notebook--><g id="elem_aws_sagemaker_notebook"><rect codeLine="26" fill="#3D176E" height="389.6484" id="aws_sagemaker_notebook" rx="2.5" ry="2.5" style="stroke:#000D19;stroke-width:0.5;" width="476" x="7" y="633.84"/><ellipse cx="125.25" cy="653.7345" fill="#ADD1B2" rx="11" ry="11" style="stroke:#181818;stroke-width:1.0;"/><path d="M128.2188,659.3752 Q127.6406,659.672 127,659.8127 Q126.3594,659.9689 125.6563,659.9689 Q123.1563,659.9689 121.8281,658.3283 Q120.5156,656.672 120.5156,653.547 Q120.5156,650.422 121.8281,648.7658 Q123.1563,647.1095 125.6563,647.1095 Q126.3594,647.1095 127,647.2658 Q127.6563,647.422 128.2188,647.7189 L128.2188,650.4377 Q127.5938,649.8595 127,649.5939 Q126.4063,649.3127 125.7813,649.3127 Q124.4375,649.3127 123.75,650.3908 Q123.0625,651.4533 123.0625,653.547 Q123.0625,655.6408 123.75,656.7189 Q124.4375,657.7814 125.7813,657.7814 Q126.4063,657.7814 127,657.5158 Q127.5938,657.2345 128.2188,656.6564 L128.2188,659.3752 Z " fill="#000000"/><text fill="#D9B8FF" font-family="Helvetica" font-size="17" lengthAdjust="spacing" textLength="221" x="150.75" y="659.6198">aws_sagemaker_notebook</text><line style="stroke:#000D19;stroke-width:0.5;" x1="8" x2="482" y1="673.6291" y2="673.6291"/><text fill="#D9B8FF" font-family="sans-serif" font-size="14" font-weight="bold" lengthAdjust="spacing" textLength="223" x="18" y="695.6242">notebook_accelerator_types</text><text fill="#D9B8FF" font-family="sans-serif" font-size="14" lengthAdjust="spacing" textLength="58" x="241" y="695.6242">: string[]</text><text fill="#D9B8FF" font-family="sans-serif" font-size="14" font-weight="bold" lengthAdjust="spacing" textLength="307" x="18" y="721.9211">notebook_additional_code_repositories</text><text fill="#D9B8FF" font-family="sans-serif" font-size="14" lengthAdjust="spacing" textLength="58" x="325" y="721.9211">: string[]</text><text fill="#D9B8FF" font-family="sans-serif" font-size="14" font-weight="bold" lengthAdjust="spacing" textLength="272" x="18" y="748.2179">notebook_default_code_repository</text><text fill="#D9B8FF" font-family="sans-serif" font-size="14" lengthAdjust="spacing" textLength="48" x="290" y="748.2179">: string</text><text fill="#D9B8FF" font-family="sans-serif" font-size="14" font-weight="bold" lengthAdjust="spacing" textLength="260" x="18" y="774.5148">notebook_direct_internet_access</text><text fill="#D9B8FF" font-family="sans-serif" font-size="14" lengthAdjust="spacing" textLength="48" x="278" y="774.5148">: string</text><text fill="#D9B8FF" font-family="sans-serif" font-size="14" font-weight="bold" lengthAdjust="spacing" textLength="194" x="18" y="800.8117">notebook_failure_reason</text><text fill="#D9B8FF" font-family="sans-serif" font-size="14" lengthAdjust="spacing" textLength="48" x="212" y="800.8117">: string</text><text fill="#D9B8FF" font-family="sans-serif" font-size="14" font-weight="bold" lengthAdjust="spacing" textLength="327" x="18" y="827.1086">notebook_instance_lifecycle_config_name</text><text fill="#D9B8FF" font-family="sans-serif" font-size="14" lengthAdjust="spacing" textLength="48" x="345" y="827.1086">: string</text><text fill="#D9B8FF" font-family="sans-serif" font-size="14" font-weight="bold" lengthAdjust="spacing" textLength="406" x="18" y="853.4054">notebook_instance_metadata_service_configuration</text><text fill="#D9B8FF" font-family="sans-serif" font-size="14" lengthAdjust="spacing" textLength="48" x="424" y="853.4054">: string</text><text fill="#D9B8FF" font-family="sans-serif" font-size="14" font-weight="bold" lengthAdjust="spacing" textLength="205" x="18" y="879.7023">notebook_instance_status</text><text fill="#D9B8FF" font-family="sans-serif" font-size="14" lengthAdjust="spacing" textLength="48" x="223" y="879.7023">: string</text><text fill="#D9B8FF" font-family="sans-serif" font-size="14" font-weight="bold" lengthAdjust="spacing" textLength="191" x="18" y="905.9992">notebook_instance_type</text><text fill="#D9B8FF" font-family="sans-serif" font-size="14" lengthAdjust="spacing" textLength="48" x="209" y="905.9992">: string</text><text fill="#D9B8FF" font-family="sans-serif" font-size="14" font-weight="bold" lengthAdjust="spacing" textLength="226" x="18" y="932.2961">notebook_platform_identifier</text><text fill="#D9B8FF" font-family="sans-serif" font-size="14" lengthAdjust="spacing" textLength="48" x="244" y="932.2961">: string</text><text fill="#D9B8FF" font-family="sans-serif" font-size="14" font-weight="bold" lengthAdjust="spacing" textLength="177" x="18" y="958.5929">notebook_root_access</text><text fill="#D9B8FF" font-family="sans-serif" font-size="14" lengthAdjust="spacing" textLength="48" x="195" y="958.5929">: string</text><text fill="#D9B8FF" font-family="sans-serif" font-size="14" font-weight="bold" lengthAdjust="spacing" textLength="103" x="18" y="984.8898">notebook_url</text><text fill="#D9B8FF" font-family="sans-serif" font-size="14" lengthAdjust="spacing" textLength="48" x="121" y="984.8898">: string</text><text fill="#D9B8FF" font-family="sans-serif" font-size="14" font-weight="bold" lengthAdjust="spacing" textLength="226" x="18" y="1011.1867">notebook_volume_size_in_gb</text><text fill="#D9B8FF" font-family="sans-serif" font-size="14" lengthAdjust="spacing" textLength="44" x="244" y="1011.1867">: int64</text></g><!--class resource--><g id="elem_resource"><rect codeLine="41" fill="#3D176E" height="310.7578" id="resource" rx="2.5" ry="2.5" style="stroke:#000D19;stroke-width:0.5;" width="227" x="131.5" y="7"/><ellipse cx="200.25" cy="26.8945" fill="#ADD1B2" rx="11" ry="11" style="stroke:#181818;stroke-width:1.0;"/><path d="M203.2188,32.5352 Q202.6406,32.832 202,32.9727 Q201.3594,33.1289 200.6563,33.1289 Q198.1563,33.1289 196.8281,31.4883 Q195.5156,29.832 195.5156,26.707 Q195.5156,23.582 196.8281,21.9258 Q198.1563,20.2695 200.6563,20.2695 Q201.3594,20.2695 202,20.4258 Q202.6563,20.582 203.2188,20.8789 L203.2188,23.5977 Q202.5938,23.0195 202,22.7539 Q201.4063,22.4727 200.7813,22.4727 Q199.4375,22.4727 198.75,23.5508 Q198.0625,24.6133 198.0625,26.707 Q198.0625,28.8008 198.75,29.8789 Q199.4375,30.9414 200.7813,30.9414 Q201.4063,30.9414 202,30.6758 Q202.5938,30.3945 203.2188,29.8164 L203.2188,32.5352 Z " fill="#000000"/><text fill="#D9B8FF" font-family="Helvetica" font-size="17" lengthAdjust="spacing" textLength="71" x="225.75" y="32.7798">resource</text><line style="stroke:#000D19;stroke-width:0.5;" x1="132.5" x2="357.5" y1="46.7891" y2="46.7891"/><text fill="#D9B8FF" font-family="sans-serif" font-size="14" font-weight="bold" lengthAdjust="spacing" textLength="29" x="142.5" y="68.7842">age</text><text fill="#D9B8FF" font-family="sans-serif" font-size="14" lengthAdjust="spacing" textLength="66" x="171.5" y="68.7842">: duration</text><text fill="#D9B8FF" font-family="sans-serif" font-size="14" font-weight="bold" lengthAdjust="spacing" textLength="43" x="142.5" y="95.0811">atime</text><text fill="#D9B8FF" font-family="sans-serif" font-size="14" lengthAdjust="spacing" textLength="70" x="185.5" y="95.0811">: datetime</text><text fill="#D9B8FF" font-family="sans-serif" font-size="14" font-weight="bold" lengthAdjust="spacing" textLength="43" x="142.5" y="121.3779">ctime</text><text fill="#D9B8FF" font-family="sans-serif" font-size="14" lengthAdjust="spacing" textLength="70" x="185.5" y="121.3779">: datetime</text><text fill="#D9B8FF" font-family="sans-serif" font-size="14" font-weight="bold" lengthAdjust="spacing" textLength="14" x="142.5" y="147.6748">id</text><text fill="#D9B8FF" font-family="sans-serif" font-size="14" lengthAdjust="spacing" textLength="48" x="156.5" y="147.6748">: string</text><text fill="#D9B8FF" font-family="sans-serif" font-size="14" font-weight="bold" lengthAdjust="spacing" textLength="33" x="142.5" y="173.9717">kind</text><text fill="#D9B8FF" font-family="sans-serif" font-size="14" lengthAdjust="spacing" textLength="48" x="175.5" y="173.9717">: string</text><text fill="#D9B8FF" font-family="sans-serif" font-size="14" font-weight="bold" lengthAdjust="spacing" textLength="90" x="142.5" y="200.2686">last_access</text><text fill="#D9B8FF" font-family="sans-serif" font-size="14" lengthAdjust="spacing" textLength="66" x="232.5" y="200.2686">: duration</text><text fill="#D9B8FF" font-family="sans-serif" font-size="14" font-weight="bold" lengthAdjust="spacing" textLength="90" x="142.5" y="226.5654">last_update</text><text fill="#D9B8FF" font-family="sans-serif" font-size="14" lengthAdjust="spacing" textLength="66" x="232.5" y="226.5654">: duration</text><text fill="#D9B8FF" font-family="sans-serif" font-size="14" font-weight="bold" lengthAdjust="spacing" textLength="48" x="142.5" y="252.8623">mtime</text><text fill="#D9B8FF" font-family="sans-serif" font-size="14" lengthAdjust="spacing" textLength="70" x="190.5" y="252.8623">: datetime</text><text fill="#D9B8FF" font-family="sans-serif" font-size="14" font-weight="bold" lengthAdjust="spacing" textLength="43" x="142.5" y="279.1592">name</text><text fill="#D9B8FF" font-family="sans-serif" font-size="14" lengthAdjust="spacing" textLength="48" x="185.5" y="279.1592">: string</text><text fill="#D9B8FF" font-family="sans-serif" font-size="14" font-weight="bold" lengthAdjust="spacing" textLength="34" x="142.5" y="305.4561">tags</text><text fill="#D9B8FF" font-family="sans-serif" font-size="14" lengthAdjust="spacing" textLength="171" x="176.5" y="305.4561">: dictionary[string, string]</text></g><!--reverse link resource to aws_resource--><g id="link_resource_aws_resource"><path codeLine="53" d="M245,336.18 C245,381.21 245,408.34 245,438.51 " fill="none" id="resource-backto-aws_resource" style="stroke:#FFAF37;stroke-width:2.0;"/><polygon fill="none" points="245,318.18,239,336.18,251,336.18,245,318.18" style="stroke:#FFAF37;stroke-width:2.0;"/></g><!--reverse link aws_resource to aws_sagemaker_notebook--><g id="link_aws_resource_aws_sagemaker_notebook"><path codeLine="54" d="M245,531.03 C245,560.7 245,587.22 245,633.49 " fill="none" id="aws_resource-backto-aws_sagemaker_notebook" style="stroke:#FFAF37;stroke-width:2.0;"/><polygon fill="none" points="245,513.03,239,531.03,251,531.03,245,513.03" style="stroke:#FFAF37;stroke-width:2.0;"/></g><!--SRC=[XPHDRzim38Rl_XK6UWiM85ctfXbswG8KtQKOrjsAmc0aoX4YImP59yW-_ljavwFoHvAJO_8X-VArb9MMc69HyYuji5WY-SIljIs1e4WVYDnsuOoZz4OfKBUpRlBHMRuAF4E1wHEQ3R8Mq2L-hRHOM_G-_HYble5Ov-GgA_VjcS3wa4BB4RKmuFq3C-bbnHY9aVFblL9TijlqvbPEPtVOmnn9f0CocKpaTDv5hewwkFU9UD6_CPt6fZqxnfxCteY6kgYo9YAHlKMF-RCQVu2KskRfvoZsSw-9B58h_h82wROrhS3uU8nd97IyAt7HsmhdzrBD1k7lv-14rDQbiFKPeNSL2Kp_9ACHa1sDleGE55Ga_oBCGuu5h94o6rPUEhTk2eul6GY11WdOKLQFzkzzNjzQOF23jRDWCk4aXlcbypgKwVCr4XLKXZi5kqXg36j2mPcsmGQBt2ZpVfXLe4r5TK_mpWupsde6Ap0pMg7O2OD1XrKwpspuw5Tg2cIGm91vf8qMnz8g6AMl3WmFhlmLg3Px62aDi79KPE6_oR9M6caO9ESksrIH6KvidAcA83JSlw0eovSr5fo_-tGwFEtpbJTQvM7_Ei9wRs9m2UlV8IO6Obgs58J3tWw4MV4EqOGcKvLrhqwc69ZJ-wOC-RwZ5isnfTthFlVXmBo5LKzBVlqx7ezRzoffNRBtVFz29Vy1]--></g></svg>

<svg xmlns="http://www.w3.org/2000/svg" width="490" height="1030" viewBox="0 0 490 1030"><rect width="155" height="74.086" x="167.5" y="438.76" fill="#3D176E" rx="2.5" ry="2.5" style="stroke:#000d19;stroke-width:.5"/><circle cx="182.5" cy="458.654" r="11" fill="#ADD1B2" style="stroke:#181818;stroke-width:1"/><path d="M185.469 464.295q-.578.297-1.219.438-.64.156-1.344.156-2.5 0-3.828-1.64-1.312-1.657-1.312-4.782t1.312-4.781q1.328-1.656 3.828-1.656.703 0 1.344.156.656.156 1.219.453v2.719q-.625-.579-1.219-.844-.594-.281-1.219-.281-1.344 0-2.031 1.078-.687 1.062-.687 3.156t.687 3.172q.688 1.062 2.031 1.062.625 0 1.219-.265.594-.281 1.219-.86z"/><text x="201.5" y="464.54" fill="#D9B8FF" font-family="Helvetica" font-size="17" textLength="113">aws_resource</text><path d="M168.5 478.549h153" style="stroke:#000d19;stroke-width:.5"/><text x="178.5" y="500.544" fill="#D9B8FF" font-family="sans-serif" font-size="14" font-weight="bold" textLength="26">arn</text><text x="204.5" y="500.544" fill="#D9B8FF" font-family="sans-serif" font-size="14" textLength="48">: string</text><rect width="476" height="389.648" x="7" y="633.84" fill="#3D176E" rx="2.5" ry="2.5" style="stroke:#000d19;stroke-width:.5"/><circle cx="125.25" cy="653.735" r="11" fill="#ADD1B2" style="stroke:#181818;stroke-width:1"/><path d="M128.219 659.375q-.578.297-1.219.438-.64.156-1.344.156-2.5 0-3.828-1.64-1.312-1.657-1.312-4.782t1.312-4.781q1.328-1.656 3.828-1.656.703 0 1.344.156.656.156 1.219.453v2.719q-.625-.578-1.219-.844-.594-.281-1.219-.281-1.344 0-2.031 1.078-.687 1.062-.687 3.156t.687 3.172q.688 1.062 2.031 1.062.625 0 1.219-.265.594-.281 1.219-.86z"/><text x="150.75" y="659.62" fill="#D9B8FF" font-family="Helvetica" font-size="17" textLength="221">aws_sagemaker_notebook</text><path d="M8 673.629h474" style="stroke:#000d19;stroke-width:.5"/><text x="18" y="695.624" fill="#D9B8FF" font-family="sans-serif" font-size="14" font-weight="bold" textLength="223">notebook_accelerator_types</text><text x="241" y="695.624" fill="#D9B8FF" font-family="sans-serif" font-size="14" textLength="58">: string[]</text><text x="18" y="721.921" fill="#D9B8FF" font-family="sans-serif" font-size="14" font-weight="bold" textLength="307">notebook_additional_code_repositories</text><text x="325" y="721.921" fill="#D9B8FF" font-family="sans-serif" font-size="14" textLength="58">: string[]</text><text x="18" y="748.218" fill="#D9B8FF" font-family="sans-serif" font-size="14" font-weight="bold" textLength="272">notebook_default_code_repository</text><text x="290" y="748.218" fill="#D9B8FF" font-family="sans-serif" font-size="14" textLength="48">: string</text><text x="18" y="774.515" fill="#D9B8FF" font-family="sans-serif" font-size="14" font-weight="bold" textLength="260">notebook_direct_internet_access</text><text x="278" y="774.515" fill="#D9B8FF" font-family="sans-serif" font-size="14" textLength="48">: string</text><text x="18" y="800.812" fill="#D9B8FF" font-family="sans-serif" font-size="14" font-weight="bold" textLength="194">notebook_failure_reason</text><text x="212" y="800.812" fill="#D9B8FF" font-family="sans-serif" font-size="14" textLength="48">: string</text><text x="18" y="827.109" fill="#D9B8FF" font-family="sans-serif" font-size="14" font-weight="bold" textLength="327">notebook_instance_lifecycle_config_name</text><text x="345" y="827.109" fill="#D9B8FF" font-family="sans-serif" font-size="14" textLength="48">: string</text><text x="18" y="853.405" fill="#D9B8FF" font-family="sans-serif" font-size="14" font-weight="bold" textLength="406">notebook_instance_metadata_service_configuration</text><text x="424" y="853.405" fill="#D9B8FF" font-family="sans-serif" font-size="14" textLength="48">: string</text><text x="18" y="879.702" fill="#D9B8FF" font-family="sans-serif" font-size="14" font-weight="bold" textLength="205">notebook_instance_status</text><text x="223" y="879.702" fill="#D9B8FF" font-family="sans-serif" font-size="14" textLength="48">: string</text><text x="18" y="905.999" fill="#D9B8FF" font-family="sans-serif" font-size="14" font-weight="bold" textLength="191">notebook_instance_type</text><text x="209" y="905.999" fill="#D9B8FF" font-family="sans-serif" font-size="14" textLength="48">: string</text><text x="18" y="932.296" fill="#D9B8FF" font-family="sans-serif" font-size="14" font-weight="bold" textLength="226">notebook_platform_identifier</text><text x="244" y="932.296" fill="#D9B8FF" font-family="sans-serif" font-size="14" textLength="48">: string</text><text x="18" y="958.593" fill="#D9B8FF" font-family="sans-serif" font-size="14" font-weight="bold" textLength="177">notebook_root_access</text><text x="195" y="958.593" fill="#D9B8FF" font-family="sans-serif" font-size="14" textLength="48">: string</text><text x="18" y="984.89" fill="#D9B8FF" font-family="sans-serif" font-size="14" font-weight="bold" textLength="103">notebook_url</text><text x="121" y="984.89" fill="#D9B8FF" font-family="sans-serif" font-size="14" textLength="48">: string</text><text x="18" y="1011.187" fill="#D9B8FF" font-family="sans-serif" font-size="14" font-weight="bold" textLength="226">notebook_volume_size_in_gb</text><text x="244" y="1011.187" fill="#D9B8FF" font-family="sans-serif" font-size="14" textLength="44">: int64</text><rect width="227" height="310.758" x="131.5" y="7" fill="#3D176E" rx="2.5" ry="2.5" style="stroke:#000d19;stroke-width:.5"/><circle cx="200.25" cy="26.895" r="11" fill="#ADD1B2" style="stroke:#181818;stroke-width:1"/><path d="M203.219 32.535q-.578.297-1.219.438-.64.156-1.344.156-2.5 0-3.828-1.64-1.312-1.657-1.312-4.782t1.312-4.781q1.328-1.656 3.828-1.656.703 0 1.344.156.656.156 1.219.453v2.719q-.625-.578-1.219-.844-.594-.281-1.219-.281-1.344 0-2.031 1.078-.687 1.062-.687 3.156t.687 3.172q.688 1.062 2.031 1.062.625 0 1.219-.265.594-.281 1.219-.86z"/><text x="225.75" y="32.78" fill="#D9B8FF" font-family="Helvetica" font-size="17" textLength="71">resource</text><path d="M132.5 46.789h225" style="stroke:#000d19;stroke-width:.5"/><text x="142.5" y="68.784" fill="#D9B8FF" font-family="sans-serif" font-size="14" font-weight="bold" textLength="29">age</text><text x="171.5" y="68.784" fill="#D9B8FF" font-family="sans-serif" font-size="14" textLength="66">: duration</text><text x="142.5" y="95.081" fill="#D9B8FF" font-family="sans-serif" font-size="14" font-weight="bold" textLength="43">atime</text><text x="185.5" y="95.081" fill="#D9B8FF" font-family="sans-serif" font-size="14" textLength="70">: datetime</text><text x="142.5" y="121.378" fill="#D9B8FF" font-family="sans-serif" font-size="14" font-weight="bold" textLength="43">ctime</text><text x="185.5" y="121.378" fill="#D9B8FF" font-family="sans-serif" font-size="14" textLength="70">: datetime</text><text x="142.5" y="147.675" fill="#D9B8FF" font-family="sans-serif" font-size="14" font-weight="bold" textLength="14">id</text><text x="156.5" y="147.675" fill="#D9B8FF" font-family="sans-serif" font-size="14" textLength="48">: string</text><text x="142.5" y="173.972" fill="#D9B8FF" font-family="sans-serif" font-size="14" font-weight="bold" textLength="33">kind</text><text x="175.5" y="173.972" fill="#D9B8FF" font-family="sans-serif" font-size="14" textLength="48">: string</text><text x="142.5" y="200.269" fill="#D9B8FF" font-family="sans-serif" font-size="14" font-weight="bold" textLength="90">last_access</text><text x="232.5" y="200.269" fill="#D9B8FF" font-family="sans-serif" font-size="14" textLength="66">: duration</text><text x="142.5" y="226.565" fill="#D9B8FF" font-family="sans-serif" font-size="14" font-weight="bold" textLength="90">last_update</text><text x="232.5" y="226.565" fill="#D9B8FF" font-family="sans-serif" font-size="14" textLength="66">: duration</text><text x="142.5" y="252.862" fill="#D9B8FF" font-family="sans-serif" font-size="14" font-weight="bold" textLength="48">mtime</text><text x="190.5" y="252.862" fill="#D9B8FF" font-family="sans-serif" font-size="14" textLength="70">: datetime</text><text x="142.5" y="279.159" fill="#D9B8FF" font-family="sans-serif" font-size="14" font-weight="bold" textLength="43">name</text><text x="185.5" y="279.159" fill="#D9B8FF" font-family="sans-serif" font-size="14" textLength="48">: string</text><text x="142.5" y="305.456" fill="#D9B8FF" font-family="sans-serif" font-size="14" font-weight="bold" textLength="34">tags</text><text x="176.5" y="305.456" fill="#D9B8FF" font-family="sans-serif" font-size="14" textLength="171">: dictionary[string, string]</text><path fill="none" d="M245 336.18v102.33m0-120.33-6 18h12zm0 212.85v102.46m0-120.46-6 18h12z" style="stroke:#ffaf37;stroke-width:2"/></svg>
